X: 16198
T: Green Ship, The
R: reel
M: 4/4
K: Fmajor
A2d2 efed|A2d2f4|A2AB c2c2|BABd c4|
A2d2efed|A2d2 f4|fagf egfe|1 f2d2d4:|2 f2d2d2||
|:c>B|A2F2F2C2|A2F2AcBA|B2 G2G2G2|B2G2 BdcB|
A2 F2F2C2|A2F2f4|fagf egfe|f2 d2d2:|

